X: 20362
T: The BIRD CATCHER
%R: march
B: "Edinburgh Repository of Music" v.2 p.36 #2
F: http://digital.nls.uk/special-collections-of-printed-music/pageturner.cfm?id=87776133
Z: 2015 John Chambers <jc:trillian.mit.edu>
M: 2/4
L: 1/16
K: D
(ba) |!p!\
g2g2 (ag).f.g | (a2b2).a2 (af) |\
d3d d'3c' | (b2a2g2) b2 |\
(ag).f.g (ag).f.g | a2b2a2 za |\
d'3d' a3a | f2e2d2 :|
(df) |\
a2a2 (ba).g.a | b2a2 g2d'2 |\
f2f2 (ag).f.g | a2b2a2c2 |\
d2(d/e/f/g/) a2c2 | d2(d/e/f/g/) a2(de) |\
f2f2 (gfef) |
g2a2 b2(ge) |\
c2c2 (dcBc) | (dfec) d2c2 |\
d2(d/e/f/g/) a2c2 | d2(d/e/f/g/) a2c2 |\
d4 d4 | d6 |]

%%sep 2 1 500
%%sep 1 1 500

